X: 966
T: Tennessee Waltz
C:Pee Wee King
B: jims roots
M:3/4
L:1/8
Q: 1/4=100
K:D
V:1 
DE |:  "D" F2 A2 DE  |  "F#7"F2 A2 de  |  "D7" f2 f2 e2  |  "G" d2 B2 Bc  | "D" d2 A2 F2  |  "Bm" B2  A2 F2 |
"(E7)" E6-  | "A7"E2z2 DE  || "D" F2 A2 DE  |  "F#7" F2 A2 de  |  "D7"f3 a fe  |  "G" d2 B2 Bc |
"D" d2 A2 F2  |  "A7" G2 F2 E2  |[1 "D" D6 -| D2z2DE:| [2 "D" D6 -| D2z2de||  "D"f2 f3 f |  "F#7" e4 fe  |
"G" d2 B2 d2  |  "D" A4  Bc  | d2 A2 F2  |  "G" B2 A2 F2  |  "E7" E6-  |"A"E2  z2 DE  | "D" F2 A2 DE |
"F#7" F2 A2 de  | "D7"f2 a2 fe  |  "G" d2 B2 AB/c/  | "D" d2 A2 F2  |  "A7" G2 F2 E2  |  "D" D6:|
% abcbook-tune_id 6298c29717a984d964951b3c


% abcbook-boost 0
% abcbook-tablature 
% abcbook-transpose 
% abcbook-lastupdated 1654178456056
% abcbook-soundfonts 
% abcbook-repeats 1


